X:1
T:Ask John
C:Ask John
C:
S:John Winston
L:1/8
R:Waltz
M:3/4
K:D
FG | A3F A2 | G4 A2 | (D6 | D4) EF | G4 B,2 | C4 B,2 | (A,6 | A,2) B,2 C2 |
D4 E2 | F4 G2 | A3A d2 | A4 G2 | F3E D2 | E3D C2 | (D6 | D4) :|

%%newpage
%%textfont Times-Roman 36
%%begintext center
SONGS
%%endtext
%%titlefont Times-Roman 24
%%scale .8
%%staffsep 40

